Papirus/24x24/animations/nm-vpn-connecting07.svg

<?xml version="1.0" encoding="UTF-8" standalone="no"?>
<svg xmlns="http://www.w3.org/2000/svg" version="1.1" width="24" height="24">
 <defs>
  <linearGradient x1="7" y1="12" gradientTransform="matrix(0.43523,0.90032,0.90032,-0.43523,-4.0262,6.4188)" x2="19" gradientUnits="userSpaceOnUse" y2="5" id="linearGradient3605">
   <stop offset="0" stop-opacity=".5" stop-color="#d3dae3"/>
   <stop offset="1" stop-opacity="0" stop-color="#d3dae3"/>
  </linearGradient>
  <linearGradient x1="7" y1="12" gradientTransform="matrix(-0.43523,-0.90032,-0.90032,0.43523,28.027,17.581)" x2="17" gradientUnits="userSpaceOnUse" y2="12" id="linearGradient3611">
   <stop offset="0" stop-color="#d3dae3"/>
   <stop offset="1" stop-color="#d3dae3" stop-opacity=".5"/>
  </linearGradient>
 </defs>
 <path d="M 12.326172 5.0058594 C 11.199172 4.9523594 10.041025 5.1714656 8.953125 5.6972656 L 9.8242188 7.4980469 C 12.310019 6.2962469 15.299953 7.3385188 16.501953 9.8242188 C 16.842105 10.527958 16.983689 11.269493 16.978516 12.001953 C 16.985855 12.001899 16.992648 12 17 12 C 17.742599 12 18.410651 12.288033 18.931641 12.744141 C 19.070156 11.485172 18.894482 10.177818 18.302734 8.953125 C 17.145734 6.560225 14.807172 5.1233594 12.326172 5.0058594 z" style="fill:url(#linearGradient3611)"/>
 <path d="M 8.953125 5.6972656 C 5.472525 7.3798656 4.0146656 11.565875 5.6972656 15.046875 C 7.0589871 17.864001 10.059775 19.344648 13 18.917969 L 13 16.873047 C 10.810467 17.322736 8.5152505 16.279507 7.4980469 14.175781 C 6.2962469 11.689781 7.3381187 8.6999469 9.8242188 7.4980469 L 8.953125 5.6972656 z" style="fill:url(#linearGradient3605)"/>
 <path d="m17 13c-1.108 0-2 .91085-2 2.0312v.96875h-1v4h6v-4h-1v-.96875c0-1.12-.892-2.031-2-2.031zm0 1c.554 0 1 .4424 1 1v1h-2v-1c0-.5576.446-1 1-1z" fill="#d3dae3"/>
</svg>

<?xml version="1.0" encoding="UTF-8" standalone="no"?>
<svg width="24" xmlns="http://www.w3.org/2000/svg" version="1.1" height="24">
 <defs>
  <linearGradient id="linearGradient3605" x1="7" gradientUnits="userSpaceOnUse" x2="19" gradientTransform="matrix(.43523 .90032 .90032 -.43523 -4.0262 6.4188)" y1="12" y2="5">
   <stop stop-opacity=".5" stop-color="#d3dae3" offset="0"/>
   <stop stop-opacity="0" stop-color="#d3dae3" offset="1"/>
  </linearGradient>
  <linearGradient id="linearGradient3611" x1="7" gradientUnits="userSpaceOnUse" x2="17" gradientTransform="matrix(-.43523 -.90032 -.90032 .43523 28.027 17.581)" y1="12" y2="12">
   <stop stop-color="#d3dae3" offset="0"/>
   <stop stop-color="#d3dae3" stop-opacity=".5" offset="1"/>
  </linearGradient>
 </defs>
 <path style="fill:url(#linearGradient3611)" d="m12.326 5.0059c-1.127-0.0535-2.285 0.1656-3.3729 0.6914l0.8711 1.8007c2.4858-1.2018 5.4758-0.1595 6.6778 2.3262 0.34 0.7038 0.482 1.4448 0.477 2.1778 0.007 0 0.014-0.002 0.021-0.002 0.743 0 1.411 0.288 1.932 0.744 0.138-1.259-0.038-2.566-0.629-3.7909-1.157-2.3929-3.496-3.8297-5.977-3.9472z"/>
 <path style="fill:url(#linearGradient3605)" d="m8.9531 5.6973c-3.4806 1.6826-4.9384 5.8687-3.2558 9.3497 1.3617 2.817 4.3627 4.298 7.3027 3.871v-2.045c-2.19 0.45-4.4847-0.593-5.502-2.697-1.2018-2.486-0.1599-5.4761 2.3262-6.678l-0.8711-1.8007z"/>
 <path d="m17 13c-1.108 0-2 0.91085-2 2.0312v0.96875h-1v4h6v-4h-1v-0.96875c0-1.12-0.892-2.031-2-2.031zm0 1c0.554 0 1 0.4424 1 1v1h-2v-1c0-0.5576 0.446-1 1-1z" fill="#d3dae3"/>
</svg>
